; generated by SuperSlicer 0.0.0 on 2025-01-01 at 12:00:00 UTC
G21                             ; units are millimeters
G90                             ; absolute mode
G28 O                           ; home all without mesh bed level
G0 Z30 F720                     ; raise pen for travel
PAUSE                           ; pause to insert pen
                                ; -- start layer --
G0 X87.0235 Y73.0000 F10000
G0 Z7 F10000
G1 X88.5621 Y75.6257 F10000
G1 X88.5621 Y75.6257 F10000
G1 X91.7192 Y74.3776 F10000
G1 X93.4012 Y73.0000 F10000
G0 Z10 F10000
G0 X95.2947 Y73.7308 F10000
G0 Z7 F10000
G1 X99.9707 Y79.0536 F10000
G0 Z10 F10000
G0 X99.8735 Y79.1369 F10000
G0 Z7 F10000
G1 X99.8987 Y81.0808 F10000
G1 X98.7857 Y81.9054 F10000
G1 X98.7541 Y78.6910 F10000
G0 Z10 F10000
G0 X98.3195 Y77.9700 F10000
G0 Z7 F10000
G1 X95.0393 Y74.2362 F10000
G0 Z10 F10000
G0 X94.7837 Y74.7409 F10000
G0 Z7 F10000
G1 X96.6689 Y76.8864 F10000
G0 Z10 F10000
G0 X96.5190 Y77.5115 F10000
G0 Z7 F10000
G1 X97.6593 Y78.8100 F10000
G0 Z10 F10000
G0 X97.6559 Y78.2535 F10000
G0 Z7 F10000
G1 X100.4419 Y79.3637 F10000
G1 X100.4419 Y79.3637 F10000
G1 X103.2264 Y73.9772 F10000
G1 X101.8174 Y73.0000 F10000
G0 Z10 F10000
G0 X101.6402 Y73.0000 F10000
G0 Z7 F10000
G1 X102.9569 Y74.4987 F10000
G0 Z10 F10000
G0 X103.2454 Y74.8270 F10000
G0 Z7 F10000
G1 X108.9742 Y81.3489 F10000
G0 Z10 F10000
G0 X108.9448 Y80.5194 F10000
G0 Z7 F10000
G1 X103.2279 Y74.0115 F10000
G0 Z10 F10000
G0 X103.2096 Y73.1960 F10000
G0 Z7 F10000
G1 X103.0381 Y73.0000 F10000
G0 Z10 F10000
G0 X103.2055 Y73.0000 F10000
G0 Z7 F10000
G1 X103.2264 Y73.9772 F10000
G1 X103.2264 Y73.9772 F10000
G1 X103.3686 Y80.5292 F10000
G1 X103.3686 Y80.5292 F10000
G1 X97.7000 Y84.6662 F10000
G1 X103.3945 Y88.2033 F10000
G1 X109.0806 Y84.3015 F10000
G1 X103.3686 Y80.5292 F10000
G0 Z10 F10000
G0 X103.3511 Y79.7200 F10000
G0 Z7 F10000
G1 X105.0192 Y81.6191 F10000
G0 Z10 F10000
G0 X105.6359 Y79.9342 F10000
G0 Z7 F10000
G1 X104.4725 Y78.6098 F10000
G0 Z10 F10000
G0 X104.4522 Y77.7915 F10000
G0 Z7 F10000
G1 X105.6128 Y79.1131 F10000
G0 Z10 F10000
G0 X105.5903 Y78.2920 F10000
G0 Z7 F10000
G1 X104.4319 Y76.9732 F10000
G0 Z10 F10000
G0 X104.4256 Y76.7100 F10000
G0 Z7 F10000
G1 X104.4900 Y79.3203 F10000
G1 X105.6401 Y80.0917 F10000
G1 X105.5686 Y77.4912 F10000
G1 X104.4256 Y76.7100 F10000
G0 Z10 F10000
G0 X103.2803 Y76.4580 F10000
G0 Z7 F10000
G1 X109.0343 Y83.0079 F10000
G0 Z10 F10000
G0 X109.0638 Y83.8374 F10000
G0 Z7 F10000
G1 X103.2979 Y77.2735 F10000
G0 Z10 F10000
G0 X103.3161 Y78.0890 F10000
G0 Z7 F10000
G1 X108.3476 Y83.8171 F10000
G0 Z10 F10000
G0 X109.0939 Y84.6669 F10000
G0 Z7 F10000
G1 X114.6211 Y90.9585 F10000
G0 Z10 F10000
G0 X114.5798 Y90.1157 F10000
G0 Z7 F10000
G1 X110.0122 Y84.9161 F10000
G0 Z10 F10000
G0 X109.1240 Y85.4964 F10000
G0 Z7 F10000
G1 X114.6631 Y91.8013 F10000
G0 Z10 F10000
G0 X114.7044 Y92.6441 F10000
G0 Z7 F10000
G1 X109.1541 Y86.3259 F10000
G0 Z10 F10000
G0 X109.1835 Y87.1554 F10000
G0 Z7 F10000
G1 X114.7464 Y93.4869 F10000
G0 Z10 F10000
G0 X114.7877 Y94.3304 F10000
G0 Z7 F10000
G1 X109.2136 Y87.9849 F10000
G0 Z10 F10000
G0 X109.2437 Y88.8144 F10000
G0 Z7 F10000
G1 X113.3100 Y93.4428 F10000
G1 X113.3100 Y93.4428 F10000
G1 X114.5336 Y94.8358 F10000
G0 Z10 F10000
G0 X114.2641 Y95.3251 F10000
G0 Z7 F10000
G1 X111.7566 Y92.4705 F10000
G1 X111.7566 Y92.4705 F10000
G1 X109.2738 Y89.6439 F10000
G0 Z10 F10000
G0 X109.3032 Y90.4734 F10000
G0 Z7 F10000
G1 X110.2041 Y91.4989 F10000
G1 X110.2041 Y91.4989 F10000
G1 X113.9953 Y95.8144 F10000
G0 Z10 F10000
G0 X113.7265 Y96.3037 F10000
G0 Z7 F10000
G1 X109.2059 Y91.1580 F10000
G0 Z10 F10000
G0 X109.3207 Y90.9452 F10000
G0 Z7 F10000
G1 X114.7898 Y94.3696 F10000
G1 X111.9856 Y99.4684 F10000
G1 X106.4759 Y96.2218 F10000
G1 X109.3207 Y90.9452 F10000
G1 X109.3207 Y90.9452 F10000
G1 X109.0806 Y84.3015 F10000
G1 X109.0806 Y84.3015 F10000
G1 X108.8488 Y77.8762 F10000
G1 X108.8488 Y77.8762 F10000
G1 X114.8031 Y73.5747 F10000
G1 X114.0261 Y73.0000 F10000
G0 Z10 F10000
G0 X114.2186 Y73.0000 F10000
G0 Z7 F10000
G1 X114.5763 Y73.4074 F10000
G0 Z10 F10000
G0 X114.8031 Y73.5747 F10000
G0 Z7 F10000
G1 X115.5983 Y73.0000 F10000
G0 Z10 F10000
G0 X114.7730 Y73.0000 F10000
G0 Z7 F10000
G1 X114.8031 Y73.5747 F10000
G1 X114.8031 Y73.5747 F10000
G1 X115.1454 Y80.1393 F10000
G1 X115.1454 Y80.1393 F10000
G1 X109.0806 Y84.3015 F10000
G1 X114.4678 Y87.8589 F10000
G1 X120.5284 Y83.9340 F10000
G1 X115.1454 Y80.1393 F10000
G0 Z10 F10000
G0 X115.1167 Y79.5905 F10000
G0 Z7 F10000
G1 X116.3368 Y80.9793 F10000
G0 Z10 F10000
G0 X117.2167 Y79.5947 F10000
G0 Z7 F10000
G1 X116.1058 Y78.3298 F10000
G0 Z10 F10000
G0 X116.0596 Y77.4814 F10000
G0 Z7 F10000
G1 X117.1677 Y78.7435 F10000
G0 Z10 F10000
G0 X117.1187 Y77.8923 F10000
G0 Z7 F10000
G1 X116.0127 Y76.6330 F10000
G0 Z10 F10000
G0 X115.9952 Y76.3159 F10000
G0 Z7 F10000
G1 X116.1387 Y78.9318 F10000
G1 X117.2237 Y79.7074 F10000
G1 X117.0732 Y77.1020 F10000
G1 X115.9952 Y76.3159 F10000
G0 Z10 F10000
G0 X114.9403 Y76.2074 F10000
G0 Z7 F10000
G1 X120.4318 Y82.4591 F10000
G0 Z10 F10000
G0 X120.3758 Y81.5995 F10000
G0 Z7 F10000
G1 X114.8962 Y75.3618 F10000
G0 Z10 F10000
G0 X114.8521 Y74.5162 F10000
G0 Z7 F10000
G1 X120.3198 Y80.7399 F10000
G0 Z10 F10000
G0 X120.2631 Y79.8803 F10000
G0 Z7 F10000
G1 X114.8080 Y73.6706 F10000
G0 Z10 F10000
G0 X116.5706 Y74.8809 F10000
G0 Z7 F10000
G1 X120.2071 Y79.0214 F10000
G0 Z10 F10000
G0 X120.1511 Y78.1618 F10000
G0 Z7 F10000
G1 X118.5642 Y76.3551 F10000
G0 Z10 F10000
G0 X114.9844 Y77.0537 F10000
G0 Z7 F10000
G1 X120.4885 Y83.3187 F10000
G0 Z10 F10000
G0 X120.0076 Y83.5672 F10000
G0 Z7 F10000
G1 X115.0285 Y77.8993 F10000
G0 Z10 F10000
G0 X115.0726 Y78.7449 F10000
G0 Z7 F10000
G1 X118.1722 Y82.2729 F10000
G0 Z10 F10000
G0 X120.5445 Y84.1783 F10000
G0 Z7 F10000
G1 X120.8651 Y84.5430 F10000
G0 Z10 F10000
G0 X120.6005 Y85.0379 F10000
G0 Z7 F10000
G1 X122.0502 Y86.6878 F10000
G0 Z10 F10000
G0 X120.7132 Y86.7564 F10000
G0 Z7 F10000
G1 X126.0150 Y92.7918 F10000
G0 Z10 F10000
G0 X125.9471 Y91.9189 F10000
G0 Z7 F10000
G1 X123.3767 Y88.9929 F10000
G0 Z10 F10000
G0 X123.2360 Y88.8326 F10000
G0 Z7 F10000
G1 X120.6572 Y85.8968 F10000
G0 Z10 F10000
G0 X120.7692 Y87.6160 F10000
G0 Z7 F10000
G1 X126.0829 Y93.6647 F10000
G0 Z10 F10000
G0 X126.8340 Y94.5194 F10000
G0 Z7 F10000
G1 X131.1614 Y99.4460 F10000
G0 Z10 F10000
G0 X131.0830 Y98.5605 F10000
G0 Z7 F10000
G1 X128.5294 Y95.6534 F10000
G0 Z10 F10000
G0 X128.1416 Y96.0083 F10000
G0 Z7 F10000
G1 X127.1168 Y94.8414 F10000
G0 Z10 F10000
G0 X127.1056 Y94.7014 F10000
G0 Z7 F10000
G1 X127.4801 Y99.3781 F10000
G1 X128.4720 Y100.0165 F10000
G1 X128.0884 Y95.3587 F10000
G0 Z10 F10000
G0 X127.1868 Y95.7171 F10000
G0 Z7 F10000
G1 X128.2137 Y96.8861 F10000
G0 Z10 F10000
G0 X128.2865 Y97.7639 F10000
G0 Z7 F10000
G1 X127.2568 Y96.5921 F10000
G0 Z10 F10000
G0 X127.3275 Y97.4671 F10000
G0 Z7 F10000
G1 X128.3586 Y98.6417 F10000
G0 Z10 F10000
G0 X128.4307 Y99.5195 F10000
G0 Z7 F10000
G1 X127.3975 Y98.3428 F10000
G0 Z10 F10000
G0 X127.4675 Y99.2178 F10000
G0 Z7 F10000
G1 X127.7748 Y99.5678 F10000
G0 Z10 F10000
G0 X129.3813 Y99.8051 F10000
G0 Z7 F10000
G1 X130.3942 Y100.9587 F10000
G0 Z10 F10000
G0 X130.3172 Y100.0760 F10000
G0 Z7 F10000
G1 X129.3064 Y98.9252 F10000
G0 Z10 F10000
G0 X129.2322 Y98.0446 F10000
G0 Z7 F10000
G1 X130.2409 Y99.1933 F10000
G0 Z10 F10000
G0 X131.2405 Y100.3315 F10000
G0 Z7 F10000
G1 X126.1508 Y94.5369 F10000
G1 X126.1508 Y94.5369 F10000
G1 X125.1386 Y93.3847 F10000
G1 X125.1386 Y93.3847 F10000
G1 X120.8259 Y88.4756 F10000
G0 Z10 F10000
G0 X120.8819 Y89.3352 F10000
G0 Z7 F10000
G1 X123.4432 Y92.2507 F10000
G1 X123.4432 Y92.2507 F10000
G1 X126.2187 Y95.4098 F10000
G1 X126.2187 Y95.4098 F10000
G1 X131.3196 Y101.2163 F10000
G0 Z10 F10000
G0 X131.3987 Y102.1018 F10000
G0 Z7 F10000
G1 X126.2866 Y96.2827 F10000
G1 X126.2866 Y96.2827 F10000
G1 X121.7478 Y91.1160 F10000
G1 X121.7478 Y91.1160 F10000
G1 X120.9379 Y90.1948 F10000
G0 Z10 F10000
G0 X120.9946 Y91.0544 F10000
G0 Z7 F10000
G1 X126.3545 Y97.1556 F10000
G1 X126.3545 Y97.1556 F10000
G1 X131.4771 Y102.9873 F10000
G0 Z10 F10000
G0 X131.2846 Y104.3586 F10000
G0 Z7 F10000
G1 X130.0183 Y102.9173 F10000
G1 X130.0183 Y102.9173 F10000
G1 X126.4896 Y98.9007 F10000
G1 X126.4896 Y98.9007 F10000
G1 X121.1066 Y92.7729 F10000
G0 Z10 F10000
G0 X121.0506 Y91.9133 F10000
G0 Z7 F10000
G1 X126.4224 Y98.0278 F10000
G1 X126.4224 Y98.0278 F10000
G1 X131.5562 Y103.8728 F10000
G1 X131.5576 Y103.8903 F10000
G1 X132.1659 Y110.7139 F10000
G1 X132.1659 Y110.7139 F10000
G1 X125.7938 Y113.7757 F10000
G1 X130.5321 Y116.3986 F10000
G1 X136.8720 Y113.5048 F10000
G1 X132.1659 Y110.7139 F10000
G0 Z10 F10000
G0 X132.1085 Y110.0699 F10000
G0 Z7 F10000
G1 X133.2278 Y111.3432 F10000
G0 Z10 F10000
G0 X134.6866 Y112.2091 F10000
G0 Z7 F10000
G1 X132.0301 Y109.1844 F10000
G0 Z10 F10000
G0 X131.9510 Y108.2989 F10000
G0 Z7 F10000
G1 X136.1461 Y113.0743 F10000
G0 Z10 F10000
G0 X136.8272 Y113.0540 F10000
G0 Z7 F10000
G1 X131.8719 Y107.4141 F10000
G0 Z10 F10000
G0 X131.7928 Y106.5286 F10000
G0 Z7 F10000
G1 X136.7376 Y112.1566 F10000
G0 Z10 F10000
G0 X136.6480 Y111.2592 F10000
G0 Z7 F10000
G1 X131.7144 Y105.6431 F10000
G0 Z10 F10000
G0 X131.6353 Y104.7576 F10000
G0 Z7 F10000
G1 X136.5584 Y110.3618 F10000
G0 Z10 F10000
G0 X136.4688 Y109.4644 F10000
G0 Z7 F10000
G1 X131.5891 Y103.9099 F10000
G1 X131.5576 Y103.8903 F10000
G1 X130.9689 Y97.2865 F10000
G0 Z10 F10000
G0 X131.0039 Y97.6750 F10000
G0 Z7 F10000
G1 X130.2241 Y96.7881 F10000
G0 Z10 F10000
G0 X129.2266 Y97.9830 F10000
G0 Z7 F10000
G1 X129.4520 Y100.6465 F10000
G1 X130.4215 Y101.2702 F10000
G1 X130.1905 Y98.6179 F10000
G1 X129.2266 Y97.9830 F10000
G0 Z10 F10000
G0 X126.6359 Y100.7795 F10000
G0 Z7 F10000
G1 X131.5576 Y103.8903 F10000
G1 X128.6540 Y108.8701 F10000
G1 X123.6854 Y105.9294 F10000
G1 X126.6359 Y100.7795 F10000
G1 X126.6359 Y100.7795 F10000
G1 X126.1116 Y94.0364 F10000
G1 X126.1116 Y94.0364 F10000
G1 X125.6132 Y87.6230 F10000
G0 Z10 F10000
G0 X125.1939 Y87.8799 F10000
G0 Z7 F10000
G1 X125.6755 Y88.4280 F10000
G0 Z10 F10000
G0 X125.7434 Y89.3009 F10000
G0 Z7 F10000
G1 X124.7396 Y88.1578 F10000
G0 Z10 F10000
G0 X124.2930 Y88.4315 F10000
G0 Z7 F10000
G1 X124.7592 Y88.7556 F10000
G1 X124.9566 Y91.3757 F10000
G1 X123.9437 Y90.6862 F10000
G1 X123.8009 Y88.7332 F10000
G0 Z10 F10000
G0 X123.8597 Y89.5431 F10000
G0 Z7 F10000
G1 X124.9083 Y90.7366 F10000
G0 Z10 F10000
G0 X124.4953 Y91.0621 F10000
G0 Z7 F10000
G1 X123.9234 Y90.4104 F10000
G0 Z10 F10000
G0 X124.8425 Y89.8665 F10000
G0 Z7 F10000
G1 X123.8310 Y88.7143 F10000
G1 X123.8310 Y88.7143 F10000
G1 X125.8792 Y91.0467 F10000
G0 Z10 F10000
G0 X125.8113 Y90.1738 F10000
G0 Z7 F10000
G1 X124.2853 Y88.4364 F10000
G1 X124.2853 Y88.4364 F10000
G1 X124.7774 Y88.9964 F10000
G0 Z10 F10000
G0 X127.0174 Y88.6856 F10000
G0 Z7 F10000
G1 X127.2302 Y91.3071 F10000
G1 X128.5182 Y90.5476 F10000
G1 X128.2963 Y87.9149 F10000
G1 X127.0174 Y88.6856 F10000
G0 Z10 F10000
G0 X129.5913 Y87.1344 F10000
G0 Z7 F10000
G1 X129.8237 Y89.7790 F10000
G1 X131.1460 Y88.9999 F10000
G1 X130.9031 Y86.3434 F10000
G1 X129.5913 Y87.1344 F10000
G0 Z10 F10000
G0 X129.8538 Y85.0253 F10000
G0 Z7 F10000
G1 X132.0434 Y83.5644 F10000
G0 Z10 F10000
G0 X131.9440 Y83.6316 F10000
G0 Z7 F10000
G1 X131.5723 Y83.2088 F10000
G1 X131.5723 Y83.2088 F10000
G1 X126.8333 Y77.8139 F10000
G0 Z10 F10000
G0 X126.9061 Y78.6917 F10000
G0 Z7 F10000
G1 X129.4926 Y81.6366 F10000
G1 X129.4926 Y81.6366 F10000
G1 X131.5030 Y83.9249 F10000
G0 Z10 F10000
G0 X131.0627 Y84.2189 F10000
G0 Z7 F10000
G1 X127.4129 Y80.0644 F10000
G1 X127.4129 Y80.0644 F10000
G1 X126.9789 Y79.5702 F10000
G0 Z10 F10000
G0 X126.9936 Y79.7473 F10000
G0 Z7 F10000
G1 X126.4483 Y73.1694 F10000
G1 X126.4483 Y73.1694 F10000
G1 X126.6968 Y73.0000 F10000
G0 Z10 F10000
G0 X126.4343 Y73.0000 F10000
G0 Z7 F10000
G1 X126.4483 Y73.1694 F10000
G1 X126.4483 Y73.1694 F10000
G1 X129.2637 Y78.4005 F10000
G1 X136.0852 Y73.9863 F10000
G1 X135.5651 Y73.0000 F10000
G0 Z10 F10000
G0 X135.8822 Y73.0000 F10000
G0 Z7 F10000
G1 X136.5227 Y73.7294 F10000
G0 Z10 F10000
G0 X136.0852 Y73.9863 F10000
G0 Z7 F10000
G1 X137.7596 Y73.0000 F10000
G1 X137.7953 Y73.0000 F10000
G1 X131.4309 Y77.1146 F10000
G1 X129.2637 Y78.4005 F10000
G0 Z10 F10000
G0 X129.3827 Y78.3298 F10000
G0 Z7 F10000
G1 X131.8082 Y81.0906 F10000
G0 Z10 F10000
G0 X131.7235 Y80.1988 F10000
G0 Z7 F10000
G1 X129.8419 Y78.0568 F10000
G0 Z10 F10000
G0 X130.3018 Y77.7845 F10000
G0 Z7 F10000
G1 X131.6388 Y79.3070 F10000
G0 Z10 F10000
G0 X131.5541 Y78.4145 F10000
G0 Z7 F10000
G1 X130.7610 Y77.5115 F10000
G0 Z10 F10000
G0 X131.2202 Y77.2392 F10000
G0 Z7 F10000
G1 X131.4694 Y77.5227 F10000
G0 Z10 F10000
G0 X131.4309 Y77.1146 F10000
G0 Z7 F10000
G1 X132.0434 Y83.5644 F10000
G1 X132.0434 Y83.5644 F10000
G1 X132.6776 Y90.2361 F10000
G1 X132.6776 Y90.2361 F10000
G1 X126.1116 Y94.0364 F10000
G1 X130.9689 Y97.2865 F10000
G1 X137.4999 Y93.7004 F10000
G1 X132.6776 Y90.2361 F10000
G0 Z10 F10000
G0 X132.6566 Y90.0107 F10000
G0 Z7 F10000
G1 X133.1564 Y90.5798 F10000
G0 Z10 F10000
G0 X132.5712 Y89.1189 F10000
G0 Z7 F10000
G1 X135.0513 Y91.9420 F10000
G0 Z10 F10000
G0 X137.3354 Y92.1548 F10000
G0 Z7 F10000
G1 X132.3171 Y86.4428 F10000
G0 Z10 F10000
G0 X132.2324 Y85.5510 F10000
G0 Z7 F10000
G1 X137.2388 Y91.2497 F10000
G0 Z10 F10000
G0 X137.1429 Y90.3453 F10000
G0 Z7 F10000
G1 X132.1477 Y84.6585 F10000
G0 Z10 F10000
G0 X132.0630 Y83.7667 F10000
G0 Z7 F10000
G1 X137.0470 Y89.4402 F10000
G0 Z10 F10000
G0 X136.9504 Y88.5351 F10000
G0 Z7 F10000
G1 X133.6527 Y84.7810 F10000
G0 Z10 F10000
G0 X133.2103 Y86.2713 F10000
G0 Z7 F10000
G1 X133.4686 Y88.9285 F10000
G1 X134.4409 Y89.6383 F10000
G1 X134.1770 Y86.9916 F10000
G1 X133.2103 Y86.2713 F10000
G0 Z10 F10000
G0 X133.2530 Y86.7123 F10000
G0 Z7 F10000
G1 X134.2638 Y87.8631 F10000
G0 Z10 F10000
G0 X134.3534 Y88.7605 F10000
G0 Z7 F10000
G1 X133.3398 Y87.6069 F10000
G0 Z10 F10000
G0 X133.4273 Y88.5015 F10000
G0 Z7 F10000
G1 X134.3982 Y89.6068 F10000
G0 Z10 F10000
G0 X132.4865 Y88.2264 F10000
G0 Z7 F10000
G1 X136.9462 Y93.3035 F10000
G0 Z10 F10000
G0 X137.4313 Y93.0599 F10000
G0 Z7 F10000
G1 X132.4018 Y87.3346 F10000
G0 Z10 F10000
G0 X130.6224 Y84.5129 F10000
G0 Z7 F10000
G1 X127.8924 Y81.4056 F10000
G0 Z10 F10000
G0 X128.8143 Y79.2734 F10000
G0 Z7 F10000
G1 X127.8245 Y78.1464 F10000
G0 Z10 F10000
G0 X127.7489 Y77.2651 F10000
G0 Z7 F10000
G1 X128.8003 Y78.4621 F10000
G0 Z10 F10000
G0 X128.9774 Y77.8678 F10000
G0 Z7 F10000
G1 X126.6149 Y75.1784 F10000
G0 Z10 F10000
G0 X126.5421 Y74.2999 F10000
G0 Z7 F10000
G1 X127.8714 Y75.8133 F10000
G1 X127.8714 Y75.8133 F10000
G1 X127.5984 Y75.5032 F10000
G0 Z10 F10000
G0 X127.5788 Y75.2701 F10000
G0 Z7 F10000
G1 X127.8581 Y78.5398 F10000
G1 X128.8759 Y79.3203 F10000
G1 X128.7037 Y77.3596 F10000
G0 Z10 F10000
G0 X128.7226 Y77.5780 F10000
G0 Z7 F10000
G1 X127.6740 Y76.3845 F10000
G0 Z10 F10000
G0 X126.6877 Y76.0569 F10000
G0 Z7 F10000
G1 X131.8936 Y81.9824 F10000
G0 Z10 F10000
G0 X131.9783 Y82.8749 F10000
G0 Z7 F10000
G1 X126.7605 Y76.9354 F10000
G0 Z10 F10000
G0 X126.7654 Y73.7595 F10000
G0 Z7 F10000
G1 X126.4693 Y73.4221 F10000
G0 Z10 F10000
G0 X126.2341 Y73.0000 F10000
G0 Z7 F10000
G1 X126.4483 Y73.1694 F10000
G1 X120.1070 Y77.4961 F10000
G1 X120.1070 Y77.4961 F10000
G1 X120.5284 Y83.9340 F10000
G1 X120.5284 Y83.9340 F10000
G1 X123.3375 Y89.0167 F10000
G1 X129.8538 Y85.0253 F10000
G1 X126.9936 Y79.7473 F10000
G1 X120.5284 Y83.9340 F10000
G1 X120.5284 Y83.9340 F10000
G1 X120.9645 Y90.5917 F10000
G1 X120.9645 Y90.5917 F10000
G1 X121.4153 Y97.4804 F10000
G1 X121.4153 Y97.4804 F10000
G1 X115.1223 Y101.0994 F10000
G1 X120.3590 Y104.1913 F10000
G1 X126.6359 Y100.7795 F10000
G1 X121.4153 Y97.4804 F10000
G0 Z10 F10000
G0 X121.3880 Y97.0702 F10000
G0 Z7 F10000
G1 X122.1643 Y97.9543 F10000
G0 Z10 F10000
G0 X122.9546 Y96.4675 F10000
G0 Z7 F10000
G1 X122.3204 Y95.7458 F10000
G0 Z10 F10000
G0 X122.2616 Y94.8834 F10000
G0 Z7 F10000
G1 X123.3508 Y96.1224 F10000
G0 Z10 F10000
G0 X123.2899 Y95.2579 F10000
G0 Z7 F10000
G1 X122.2035 Y94.0210 F10000
G0 Z10 F10000
