; generated by SuperSlicer 0.0.0 on 2025-01-01 at 12:00:00 UTC
G21                             ; units are millimeters
G90                             ; absolute mode
G28 O                           ; home all without mesh bed level
G0 Z30 F720                     ; raise pen for travel
PAUSE                           ; pause to insert pen
                                ; -- start layer --
G0 X84.4960 Y124.8197 F10000
G0 Z7 F10000
G1 X84.4721 Y122.5955 F10000
G1 X84.4721 Y122.5955 F10000
G1 X84.4960 Y124.8197 F10000
G1 X84.4960 Y124.8197 F10000
G1 X84.6493 Y126.9491 F10000
G1 X84.6493 Y126.9491 F10000
G1 X84.9043 Y128.6316 F10000
G1 X84.9043 Y128.6316 F10000
G1 X85.2171 Y129.6085 F10000
G1 X85.2171 Y129.6085 F10000
G1 X85.5360 Y129.7580 F10000
G1 X85.5360 Y129.7580 F10000
G1 X85.2171 Y129.6085 F10000
G0 Z10 F10000
G0 X84.2911 Y130.3412 F10000
G0 Z7 F10000
G1 X84.2518 Y129.7788 F10000
G1 X84.2518 Y129.7788 F10000
G1 X84.3565 Y131.2757 F10000
G1 X84.3565 Y131.2757 F10000
G1 X84.5869 Y132.7340 F10000
G1 X84.5869 Y132.7340 F10000
G1 X84.8766 Y133.5545 F10000
G1 X84.8766 Y133.5545 F10000
G1 X85.1785 Y133.6339 F10000
G0 Z10 F10000
G0 X85.0283 Y133.5946 F10000
G0 Z7 F10000
G1 X84.8766 Y133.5545 F10000
G0 Z10 F10000
G0 X84.7325 Y133.1470 F10000
G0 Z7 F10000
G1 X84.5869 Y132.7340 F10000
G0 Z10 F10000
G0 X84.4721 Y132.0083 F10000
G0 Z7 F10000
G1 X84.3565 Y131.2757 F10000
G0 Z10 F10000
G0 X82.4729 Y129.7318 F10000
G0 Z7 F10000
G1 X82.6593 Y129.8049 F10000
G1 X82.6593 Y129.8049 F10000
G1 X82.2834 Y129.6578 F10000
G0 Z10 F10000
G0 X82.1039 Y129.1740 F10000
G0 Z7 F10000
G1 X82.2834 Y129.6578 F10000
G1 X82.2834 Y129.6578 F10000
G1 X81.9213 Y128.6832 F10000
G1 X81.9213 Y128.6832 F10000
G1 X81.6332 Y127.0030 F10000
G1 X81.6332 Y127.0030 F10000
G1 X81.4683 Y124.8759 F10000
G0 Z10 F10000
G0 X81.5507 Y125.9429 F10000
G0 Z7 F10000
G1 X81.6332 Y127.0030 F10000
G0 Z10 F10000
G0 X81.7780 Y127.8481 F10000
G0 Z7 F10000
G1 X81.9213 Y128.6832 F10000
G0 Z10 F10000
G0 X81.5214 Y129.8689 F10000
G0 Z7 F10000
G1 X81.6178 Y131.1632 F10000
G1 X81.6178 Y131.1632 F10000
G1 X81.8743 Y132.6215 F10000
G1 X81.8743 Y132.6215 F10000
G1 X82.2048 Y133.4451 F10000
G1 X82.2048 Y133.4451 F10000
G1 X82.5546 Y133.5275 F10000
G1 X82.5546 Y133.5275 F10000
G1 X82.2048 Y133.4451 F10000
G0 Z10 F10000
G0 X81.8743 Y132.6215 F10000
G0 Z7 F10000
G1 X81.6178 Y131.1632 F10000
G0 Z10 F10000
G0 X79.5184 Y129.8142 F10000
G0 Z7 F10000
G1 X79.9414 Y129.9567 F10000
G1 X79.9414 Y129.9567 F10000
G1 X79.5184 Y129.8142 F10000
G1 X79.5184 Y129.8142 F10000
G1 X79.1039 Y128.8458 F10000
G1 X79.1039 Y128.8458 F10000
G1 X78.7665 Y127.1748 F10000
G0 Z10 F10000
G0 X78.5639 Y125.0569 F10000
G0 Z7 F10000
G1 X78.7665 Y127.1748 F10000
G1 X78.7665 Y127.1748 F10000
G1 X78.5639 Y125.0569 F10000
G1 X78.5639 Y125.0569 F10000
G1 X78.5331 Y122.8420 F10000
G1 X78.5331 Y122.8420 F10000
G1 X78.6802 Y120.9053 F10000
G1 X78.6802 Y120.9053 F10000
G1 X78.5331 Y122.8420 F10000
G0 Z10 F10000
G0 X81.4583 Y122.6525 F10000
G0 Z7 F10000
G1 X81.6039 Y120.7103 F10000
G1 X81.6039 Y120.7103 F10000
G1 X81.7418 Y120.0362 F10000
G0 Z10 F10000
G0 X81.8782 Y119.3691 F10000
G0 Z7 F10000
G1 X82.2341 Y118.8283 F10000
G0 Z10 F10000
G0 X82.0577 Y119.0963 F10000
G0 Z7 F10000
G1 X81.8782 Y119.3691 F10000
G1 X81.8782 Y119.3691 F10000
G1 X81.6039 Y120.7103 F10000
G0 Z10 F10000
G0 X81.5307 Y121.6787 F10000
G0 Z7 F10000
G1 X81.4583 Y122.6525 F10000
G1 X81.4583 Y122.6525 F10000
G1 X81.4683 Y124.8759 F10000
G1 X81.4683 Y124.8759 F10000
G1 X81.4629 Y123.7642 F10000
G0 Z10 F10000
G0 X84.4721 Y122.5955 F10000
G0 Z7 F10000
G1 X84.5823 Y120.6533 F10000
G1 X84.5823 Y120.6533 F10000
G1 X84.8057 Y119.3136 F10000
G1 X84.8057 Y119.3136 F10000
G1 X85.1023 Y118.7743 F10000
G1 X85.1023 Y118.7743 F10000
G1 X84.8057 Y119.3136 F10000
G1 X84.8057 Y119.3136 F10000
G1 X84.5823 Y120.6533 F10000
G0 Z10 F10000
G0 X88.2194 Y120.5639 F10000
G0 Z7 F10000
G1 X88.3426 Y119.2319 F10000
G0 Z10 F10000
G0 X88.5344 Y118.6988 F10000
G0 Z7 F10000
G1 X88.3426 Y119.2319 F10000
G1 X88.3426 Y119.2319 F10000
G1 X88.2194 Y120.5639 F10000
G1 X88.2194 Y120.5639 F10000
G1 X88.1878 Y122.4984 F10000
G1 X88.1878 Y122.4984 F10000
G1 X88.2548 Y124.7164 F10000
G1 X88.2548 Y124.7164 F10000
G1 X88.4089 Y126.8420 F10000
G1 X88.4089 Y126.8420 F10000
G1 X88.6230 Y128.5230 F10000
G1 X88.6230 Y128.5230 F10000
G1 X88.4089 Y126.8420 F10000
G0 Z10 F10000
G0 X88.6230 Y128.5230 F10000
G0 Z7 F10000
G1 X88.8603 Y129.5014 F10000
G1 X88.8603 Y129.5014 F10000
G1 X89.0837 Y129.6555 F10000
G1 X89.0837 Y129.6555 F10000
G1 X88.8603 Y129.5014 F10000
G0 Z10 F10000
G0 X90.3087 Y129.5993 F10000
G0 Z7 F10000
G1 X90.3048 Y129.7410 F10000
G1 X90.3048 Y129.7410 F10000
G1 X90.3295 Y131.6239 F10000
G1 X90.3295 Y131.6239 F10000
G1 X90.4350 Y133.0838 F10000
G1 X90.4350 Y133.0838 F10000
G1 X90.6030 Y133.8989 F10000
G1 X90.6030 Y133.8989 F10000
G1 X90.8040 Y133.9667 F10000
G0 Z10 F10000
G0 X90.6030 Y133.8989 F10000
G0 Z7 F10000
G1 X90.4350 Y133.0838 F10000
G0 Z10 F10000
G0 X87.4597 Y133.6315 F10000
G0 Z7 F10000
G1 X87.7217 Y133.7071 F10000
G1 X87.7217 Y133.7071 F10000
G1 X87.4597 Y133.6315 F10000
G1 X87.4597 Y133.6315 F10000
G1 X87.2147 Y132.8111 F10000
G1 X87.2147 Y132.8111 F10000
G1 X87.0268 Y131.3511 F10000
G1 X87.0268 Y131.3511 F10000
G1 X86.9412 Y129.7171 F10000
G0 Z10 F10000
G0 X87.0268 Y131.3511 F10000
G0 Z7 F10000
G1 X87.2147 Y132.8111 F10000
G0 Z10 F10000
G0 X93.0051 Y129.3127 F10000
G0 Z7 F10000
G1 X93.0968 Y129.4721 F10000
G1 X93.0968 Y129.4721 F10000
G1 X93.0051 Y129.3127 F10000
G1 X93.0051 Y129.3127 F10000
G1 X92.8649 Y128.3327 F10000
G1 X92.8649 Y128.3327 F10000
G1 X92.6962 Y126.6586 F10000
G0 Z10 F10000
G0 X94.2670 Y129.3889 F10000
G0 Z7 F10000
G1 X94.2023 Y130.2294 F10000
G1 X94.2023 Y130.2294 F10000
G1 X94.1099 Y132.1139 F10000
G1 X94.1099 Y132.1139 F10000
G1 X94.2023 Y130.2294 F10000
G0 Z10 F10000
G0 X94.1099 Y132.1139 F10000
G0 Z7 F10000
G1 X94.0929 Y133.5699 F10000
G1 X94.0929 Y133.5699 F10000
G1 X94.1514 Y134.3758 F10000
G1 X94.1514 Y134.3758 F10000
G1 X94.2740 Y134.4312 F10000
G0 Z10 F10000
G0 X94.1514 Y134.3758 F10000
G0 Z7 F10000
G1 X94.0929 Y133.5699 F10000
G0 Z10 F10000
G0 X97.9503 Y135.0899 F10000
G0 Z7 F10000
G1 X97.9750 Y135.1300 F10000
G0 Z10 F10000
G0 X98.2169 Y132.8550 F10000
G0 Z7 F10000
G1 X98.0335 Y134.2987 F10000
G1 X98.0335 Y134.2987 F10000
G1 X97.9503 Y135.0899 F10000
G1 X97.9503 Y135.0899 F10000
G1 X98.0335 Y134.2987 F10000
G1 X98.0335 Y134.2987 F10000
G1 X98.2169 Y132.8550 F10000
G0 Z10 F10000
G0 X98.4727 Y130.9767 F10000
G0 Z7 F10000
G1 X98.2169 Y132.8550 F10000
G1 X98.2169 Y132.8550 F10000
G1 X98.4727 Y130.9767 F10000
G0 Z10 F10000
G0 X98.7523 Y129.0199 F10000
G0 Z7 F10000
G1 X98.4727 Y130.9767 F10000
G1 X98.4727 Y130.9767 F10000
G1 X98.7523 Y129.0199 F10000
G0 Z10 F10000
G0 X97.4403 Y128.9991 F10000
G0 Z7 F10000
G1 X97.3671 Y129.1694 F10000
G0 Z10 F10000
G0 X97.4164 Y128.0199 F10000
G0 Z7 F10000
G1 X97.2947 Y126.3574 F10000
G1 X97.2947 Y126.3574 F10000
G1 X97.4164 Y128.0199 F10000
G1 X97.4164 Y128.0199 F10000
G1 X97.4403 Y128.9991 F10000
G1 X97.4403 Y128.9991 F10000
G1 X97.4164 Y128.0199 F10000
G0 Z10 F10000
G0 X101.6968 Y128.7025 F10000
G0 Z7 F10000
G1 X101.9634 Y128.5122 F10000
G0 Z10 F10000
G0 X102.0712 Y127.5307 F10000
G0 Z7 F10000
G1 X101.9972 Y125.8844 F10000
G1 X101.9972 Y125.8844 F10000
G1 X102.0712 Y127.5307 F10000
G1 X102.0712 Y127.5307 F10000
G1 X101.9634 Y128.5122 F10000
G1 X101.9634 Y128.5122 F10000
G1 X102.0712 Y127.5307 F10000
G0 Z10 F10000
G0 X103.7931 Y128.3658 F10000
G0 Z7 F10000
G1 X103.4348 Y130.0484 F10000
G1 X103.4348 Y130.0484 F10000
G1 X102.9726 Y132.0353 F10000
G1 X102.9726 Y132.0353 F10000
G1 X102.5065 Y133.8889 F10000
G1 X102.5065 Y133.8889 F10000
G1 X102.1136 Y135.3049 F10000
G1 X102.1136 Y135.3049 F10000
G1 X101.8547 Y136.0683 F10000
G1 X101.8547 Y136.0683 F10000
G1 X101.7646 Y136.0868 F10000
G1 X101.7646 Y136.0868 F10000
G1 X101.8547 Y136.0683 F10000
G0 Z10 F10000
G0 X102.1136 Y135.3049 F10000
G0 Z7 F10000
G1 X102.5065 Y133.8889 F10000
G0 Z10 F10000
G0 X102.9726 Y132.0353 F10000
G0 Z7 F10000
G1 X103.4348 Y130.0484 F10000
G0 Z10 F10000
G0 X105.9109 Y128.0261 F10000
G0 Z7 F10000
G1 X106.3893 Y127.8004 F10000
G1 X106.3893 Y127.8004 F10000
G1 X106.6381 Y126.8096 F10000
G0 Z10 F10000
G0 X106.6097 Y125.1833 F10000
G0 Z7 F10000
G1 X106.6381 Y126.8096 F10000
G1 X106.6381 Y126.8096 F10000
G1 X106.6097 Y125.1833 F10000
G1 X106.6097 Y125.1833 F10000
G1 X106.2984 Y123.1718 F10000
G1 X106.2984 Y123.1718 F10000
G1 X105.7522 Y121.1063 F10000
G1 X105.7522 Y121.1063 F10000
G1 X106.2984 Y123.1718 F10000
G0 Z10 F10000
G0 X105.7522 Y121.1063 F10000
G0 Z7 F10000
G1 X105.0635 Y119.3367 F10000
G1 X105.0635 Y119.3367 F10000
G1 X104.3478 Y118.1518 F10000
G1 X104.3478 Y118.1518 F10000
G1 X105.0635 Y119.3367 F10000
G1 X105.0635 Y119.3367 F10000
G1 X105.7522 Y121.1063 F10000
G0 Z10 F10000
G0 X104.3478 Y118.1518 F10000
G0 Z7 F10000
G1 X103.7229 Y117.7281 F10000
G0 Z10 F10000
G0 X100.4518 Y118.6017 F10000
G0 Z7 F10000
G1 X100.0789 Y118.1264 F10000
G1 X100.0789 Y118.1264 F10000
G1 X100.4518 Y118.6017 F10000
G1 X100.4518 Y118.6017 F10000
G1 X100.9033 Y119.8529 F10000
G1 X100.9033 Y119.8529 F10000
G1 X101.3609 Y121.6949 F10000
G1 X101.3609 Y121.6949 F10000
G1 X101.7469 Y123.8258 F10000
G1 X101.7469 Y123.8258 F10000
G1 X101.9972 Y125.8844 F10000
G1 X101.9972 Y125.8844 F10000
G1 X101.7469 Y123.8258 F10000
G1 X101.7469 Y123.8258 F10000
G1 X101.3609 Y121.6949 F10000
G1 X101.3609 Y121.6949 F10000
G1 X100.9033 Y119.8529 F10000
G0 Z10 F10000
G0 X96.8440 Y122.0901 F10000
G0 Z7 F10000
G1 X97.0928 Y124.2650 F10000
G1 X97.0928 Y124.2650 F10000
G1 X97.2947 Y126.3574 F10000
G1 X97.2947 Y126.3574 F10000
G1 X97.0928 Y124.2650 F10000
G1 X97.0928 Y124.2650 F10000
G1 X96.8440 Y122.0901 F10000
G1 X96.8440 Y122.0901 F10000
G1 X96.5898 Y120.2011 F10000
G1 X96.5898 Y120.2011 F10000
G1 X96.3718 Y118.9076 F10000
G1 X96.3718 Y118.9076 F10000
G1 X96.2262 Y118.4022 F10000
G0 Z10 F10000
G0 X92.3140 Y118.5832 F10000
G0 Z7 F10000
G1 X92.2701 Y119.1056 F10000
G1 X92.2701 Y119.1056 F10000
G1 X92.2948 Y120.4237 F10000
G1 X92.2948 Y120.4237 F10000
G1 X92.3849 Y122.3421 F10000
G1 X92.3849 Y122.3421 F10000
G1 X92.5267 Y124.5446 F10000
G1 X92.5267 Y124.5446 F10000
G1 X92.6962 Y126.6586 F10000
G1 X92.6962 Y126.6586 F10000
G1 X92.5267 Y124.5446 F10000
G1 X92.5267 Y124.5446 F10000
G1 X92.3849 Y122.3421 F10000
G1 X92.3849 Y122.3421 F10000
G1 X92.2948 Y120.4237 F10000
G1 X92.2948 Y120.4237 F10000
G1 X92.2701 Y119.1056 F10000
G0 Z10 F10000
G0 X88.1878 Y122.4984 F10000
G0 Z7 F10000
G1 X88.2548 Y124.7164 F10000
G0 Z10 F10000
G0 X81.0893 Y117.9870 F10000
G0 Z7 F10000
G1 X81.2795 Y117.8206 F10000
G1 X81.2795 Y117.8206 F10000
G1 X81.0893 Y117.9870 F10000
G0 Z10 F10000
G0 X80.6586 Y117.8699 F10000
G0 Z7 F10000
G1 X81.0893 Y117.9870 F10000
G1 X81.0893 Y117.9870 F10000
G1 X80.6586 Y117.8699 F10000
G1 X80.6586 Y117.8699 F10000
G1 X80.0508 Y117.4808 F10000
G0 Z10 F10000
G0 X79.3574 Y116.8776 F10000
G0 Z7 F10000
G1 X80.0508 Y117.4808 F10000
G1 X80.0508 Y117.4808 F10000
G1 X79.3574 Y116.8776 F10000
G1 X79.3574 Y116.8776 F10000
G1 X78.6887 Y116.1542 F10000
G1 X78.6887 Y116.1542 F10000
G1 X78.1517 Y115.4254 F10000
G1 X78.1517 Y115.4254 F10000
G1 X77.8312 Y114.8060 F10000
G1 X77.8312 Y114.8060 F10000
G1 X77.7742 Y114.3938 F10000
G0 Z10 F10000
G0 X77.5215 Y114.6657 F10000
G0 Z7 F10000
G1 X77.3158 Y114.4385 F10000
G1 X77.3158 Y114.4385 F10000
G1 X76.7665 Y113.7305 F10000
G0 Z10 F10000
G0 X76.2134 Y112.9339 F10000
G0 Z7 F10000
G1 X75.7450 Y112.1750 F10000
G1 X75.7450 Y112.1750 F10000
G1 X76.2134 Y112.9339 F10000
G1 X76.2134 Y112.9339 F10000
G1 X76.7665 Y113.7305 F10000
G1 X76.7665 Y113.7305 F10000
G1 X76.2134 Y112.9339 F10000
G0 Z10 F10000
G0 X75.7450 Y112.1750 F10000
G0 Z7 F10000
G1 X75.4360 Y111.5741 F10000
G1 X75.4360 Y111.5741 F10000
G1 X75.3328 Y111.2244 F10000
G1 X75.3328 Y111.2244 F10000
G1 X75.4360 Y111.5741 F10000
G1 X75.4360 Y111.5741 F10000
G1 X75.7450 Y112.1750 F10000
G0 Z10 F10000
G0 X77.4961 Y111.7575 F10000
G0 Z7 F10000
G1 X77.0246 Y111.0017 F10000
G1 X77.0246 Y111.0017 F10000
G1 X76.7288 Y110.3916 F10000
G1 X76.7288 Y110.3916 F10000
G1 X76.6533 Y110.0225 F10000
G1 X76.6533 Y110.0225 F10000
G1 X76.7288 Y110.3916 F10000
G1 X76.7288 Y110.3916 F10000
G1 X77.0246 Y111.0017 F10000
G1 X77.0246 Y111.0017 F10000
G1 X77.4961 Y111.7575 F10000
G1 X77.4961 Y111.7575 F10000
G1 X78.0685 Y112.5394 F10000
G1 X78.0685 Y112.5394 F10000
G1 X78.6502 Y113.2236 F10000
G1 X78.6502 Y113.2236 F10000
G1 X78.8127 Y113.3792 F10000
G1 X78.8127 Y113.3792 F10000
G1 X78.6502 Y113.2236 F10000
G0 Z10 F10000
G0 X79.1086 Y113.0903 F10000
G0 Z7 F10000
G1 X79.1632 Y113.5094 F10000
G1 X79.1632 Y113.5094 F10000
G1 X79.4699 Y114.1488 F10000
G1 X79.4699 Y114.1488 F10000
G1 X79.9837 Y114.9092 F10000
G1 X80.6216 Y115.6688 F10000
G1 X80.6216 Y115.6688 F10000
G1 X81.2834 Y116.3075 F10000
G1 X81.2834 Y116.3075 F10000
G1 X81.8643 Y116.7250 F10000
G1 X81.8643 Y116.7250 F10000
G1 X82.2741 Y116.8614 F10000
G0 Z10 F10000
G0 X82.9968 Y115.7243 F10000
G0 Z7 F10000
G1 X83.3920 Y115.8730 F10000
G1 X83.3920 Y115.8730 F10000
G1 X82.9968 Y115.7243 F10000
G0 Z10 F10000
G0 X82.4352 Y115.2875 F10000
G0 Z7 F10000
G1 X82.9968 Y115.7243 F10000
G1 X82.9968 Y115.7243 F10000
G1 X82.4352 Y115.2875 F10000
G1 X82.4352 Y115.2875 F10000
G1 X81.7942 Y114.6272 F10000
G1 X81.7942 Y114.6272 F10000
G1 X81.1740 Y113.8460 F10000
G1 X81.1740 Y113.8460 F10000
G1 X80.6740 Y113.0672 F10000
G1 X80.6740 Y113.0672 F10000
G1 X80.3728 Y112.4162 F10000
G1 X80.3728 Y112.4162 F10000
G1 X80.3173 Y111.9924 F10000
G0 Z10 F10000
G0 X80.0600 Y112.2259 F10000
G0 Z7 F10000
G1 X79.9051 Y112.0903 F10000
G1 X79.9051 Y112.0903 F10000
G1 X79.3027 Y111.4216 F10000
G1 X79.3027 Y111.4216 F10000
G1 X78.7172 Y110.6489 F10000
G1 X78.7172 Y110.6489 F10000
G1 X78.2434 Y109.8946 F10000
G1 X78.2434 Y109.8946 F10000
G1 X77.9553 Y109.2791 F10000
G1 X77.9553 Y109.2791 F10000
G1 X78.2434 Y109.8946 F10000
G1 X78.2434 Y109.8946 F10000
G1 X78.7172 Y110.6489 F10000
G0 Z10 F10000
G0 X79.8289 Y109.6643 F10000
G0 Z7 F10000
G1 X80.4213 Y110.4331 F10000
G1 X80.4213 Y110.4331 F10000
G1 X79.8289 Y109.6643 F10000
G1 X79.8289 Y109.6643 F10000
G1 X79.3528 Y108.9108 F10000
G1 X79.3528 Y108.9108 F10000
G1 X79.0677 Y108.2930 F10000
G1 X79.0677 Y108.2930 F10000
G1 X79.0176 Y107.9062 F10000
G1 X79.0176 Y107.9062 F10000
G1 X79.0677 Y108.2930 F10000
G0 Z10 F10000
G0 X80.1555 Y107.7976 F10000
G0 Z7 F10000
G1 X80.2988 Y108.1073 F10000
G1 X80.2988 Y108.1073 F10000
G1 X80.7773 Y108.8608 F10000
G1 X81.3728 Y109.6304 F10000
G1 X81.3728 Y109.6304 F10000
G1 X81.0754 Y109.2460 F10000
G0 Z10 F10000
G0 X81.3728 Y109.6304 F10000
G0 Z7 F10000
G1 X81.9891 Y110.2929 F10000
G1 X81.9891 Y110.2929 F10000
G1 X82.1308 Y110.4116 F10000
G0 Z10 F10000
G0 X81.9891 Y110.2929 F10000
G0 Z7 F10000
G1 X81.6817 Y109.9624 F10000
G0 Z10 F10000
G0 X82.2834 Y110.2737 F10000
G0 Z7 F10000
G1 X82.3450 Y110.6974 F10000
G0 Z10 F10000
G0 X82.6485 Y111.3538 F10000
G0 Z7 F10000
G1 X82.3450 Y110.6974 F10000
G1 X82.3450 Y110.6974 F10000
G1 X82.6485 Y111.3538 F10000
G1 X82.6485 Y111.3538 F10000
G1 X83.1493 Y112.1404 F10000
G1 X83.1493 Y112.1404 F10000
G1 X83.7672 Y112.9323 F10000
G1 X83.7672 Y112.9323 F10000
G1 X84.4035 Y113.6034 F10000
G1 X84.4035 Y113.6034 F10000
G1 X84.9575 Y114.0494 F10000
G1 X84.9575 Y114.0494 F10000
G1 X85.3457 Y114.2051 F10000
G1 X85.3457 Y114.2051 F10000
G1 X85.5114 Y114.0517 F10000
G0 Z10 F10000
G0 X84.3627 Y115.0710 F10000
G0 Z7 F10000
G1 X83.9760 Y114.9154 F10000
G1 X83.9760 Y114.9154 F10000
G1 X83.4236 Y114.4693 F10000
G1 X83.4236 Y114.4693 F10000
G1 X82.7903 Y113.7990 F10000
G1 X82.7903 Y113.7990 F10000
G1 X82.1755 Y113.0086 F10000
G1 X82.1755 Y113.0086 F10000
G1 X81.6786 Y112.2228 F10000
G1 X81.6786 Y112.2228 F10000
G1 X81.3774 Y111.5679 F10000
G1 X81.3774 Y111.5679 F10000
G1 X81.3173 Y111.1450 F10000
G1 X81.3173 Y111.1450 F10000
G1 X81.3474 Y111.3561 F10000
G0 Z10 F10000
G0 X81.3774 Y111.5679 F10000
G0 Z7 F10000
G1 X81.5276 Y111.8946 F10000
G0 Z10 F10000
G0 X81.6786 Y112.2228 F10000
G0 Z7 F10000
G1 X81.9275 Y112.6157 F10000
G0 Z10 F10000
