; generated by SuperSlicer 0.0.0 on 2025-01-01 at 12:00:00 UTC
G21                             ; units are millimeters
G90                             ; absolute mode
G28 O                           ; home all without mesh bed level
G0 Z30 F720                     ; raise pen for travel
PAUSE                           ; pause to insert pen
                                ; -- start layer --
G0 X27.8698 Y73.0145 F10000
G0 Z7 F10000
G1 X28.0090 Y73.0085 F10000
G1 X28.1473 Y73.0043 F10000
G1 X28.2857 Y73.0017 F10000
G1 X28.4232 Y73.0000 F10000
G1 X28.5598 Y73.0000 F10000
G1 X28.6965 Y73.0009 F10000
G1 X28.8322 Y73.0034 F10000
G1 X28.9672 Y73.0068 F10000
G1 X29.1021 Y73.0120 F10000
G1 X29.2362 Y73.0179 F10000
G1 X29.3702 Y73.0256 F10000
G1 X29.5035 Y73.0350 F10000
G1 X29.6358 Y73.0453 F10000
G1 X29.7682 Y73.0564 F10000
G1 X29.8997 Y73.0692 F10000
G1 X30.0312 Y73.0837 F10000
G1 X30.1619 Y73.0991 F10000
G1 X30.2917 Y73.1153 F10000
G1 X30.4215 Y73.1332 F10000
G1 X30.5504 Y73.1529 F10000
G1 X30.6785 Y73.1734 F10000
G1 X30.8075 Y73.1947 F10000
G1 X30.9347 Y73.2178 F10000
G1 X31.0620 Y73.2417 F10000
G1 X31.1884 Y73.2664 F10000
G1 X31.3148 Y73.2929 F10000
G1 X31.4411 Y73.3202 F10000
G1 X31.5658 Y73.3484 F10000
G1 X31.6914 Y73.3783 F10000
G1 X31.8152 Y73.4091 F10000
G1 X31.9399 Y73.4406 F10000
G1 X32.0637 Y73.4731 F10000
G1 X32.1867 Y73.5073 F10000
G1 X32.3096 Y73.5414 F10000
G1 X32.4317 Y73.5773 F10000
G1 X32.5539 Y73.6140 F10000
G1 X32.6760 Y73.6516 F10000
G1 X32.7972 Y73.6892 F10000
G1 X32.9185 Y73.7284 F10000
G1 X33.0398 Y73.7686 F10000
G1 X33.1602 Y73.8096 F10000
G1 X33.2797 Y73.8506 F10000
G1 X33.4001 Y73.8933 F10000
G1 X33.5197 Y73.9359 F10000
G1 X33.6393 Y73.9795 F10000
G1 X33.7580 Y74.0239 F10000
G1 X33.8767 Y74.0683 F10000
G1 X33.9954 Y74.1136 F10000
G1 X34.1141 Y74.1597 F10000
G1 X34.2319 Y74.2058 F10000
G1 X34.3506 Y74.2528 F10000
G1 X34.4685 Y74.2998 F10000
G1 X34.5863 Y74.3476 F10000
G1 X34.7033 Y74.3954 F10000
G1 X34.8212 Y74.4432 F10000
G1 X34.9382 Y74.4919 F10000
G1 X35.0560 Y74.5406 F10000
G1 X35.1730 Y74.5901 F10000
G1 X35.2900 Y74.6388 F10000
G1 X35.4070 Y74.6883 F10000
G1 X35.5240 Y74.7378 F10000
G1 X35.6410 Y74.7874 F10000
G1 X35.7580 Y74.8369 F10000
G1 X35.8750 Y74.8864 F10000
G1 X35.9920 Y74.9351 F10000
G1 X36.1090 Y74.9847 F10000
G1 X36.2260 Y75.0342 F10000
G1 X36.3429 Y75.0828 F10000
G1 X36.4608 Y75.1315 F10000
G1 X36.5778 Y75.1802 F10000
G1 X36.6956 Y75.2289 F10000
G1 X36.8126 Y75.2767 F10000
G1 X36.9305 Y75.3245 F10000
G1 X37.0484 Y75.3715 F10000
G1 X37.1662 Y75.4185 F10000
G1 X37.2849 Y75.4654 F10000
G1 X37.4027 Y75.5107 F10000
G1 X37.5215 Y75.5568 F10000
G1 X37.6401 Y75.6012 F10000
G1 X37.7597 Y75.6456 F10000
G1 X37.8793 Y75.6892 F10000
G1 X37.9988 Y75.7319 F10000
G1 X38.1184 Y75.7746 F10000
G1 X38.2388 Y75.8164 F10000
G1 X38.3592 Y75.8566 F10000
G1 X38.4796 Y75.8967 F10000
G1 X38.6009 Y75.9360 F10000
G1 X38.7221 Y75.9744 F10000
G1 X38.8443 Y76.0120 F10000
G1 X38.9664 Y76.0487 F10000
G1 X39.0885 Y76.0846 F10000
G1 X39.2115 Y76.1196 F10000
G1 X39.3344 Y76.1529 F10000
G1 X39.4583 Y76.1862 F10000
G1 X39.5821 Y76.2178 F10000
G1 X39.7068 Y76.2485 F10000
G1 X39.8315 Y76.2776 F10000
G1 X39.9570 Y76.3066 F10000
G1 X40.0825 Y76.3339 F10000
G1 X40.2089 Y76.3604 F10000
G1 X40.3361 Y76.3852 F10000
G1 X40.4634 Y76.4091 F10000
G1 X40.5907 Y76.4321 F10000
G1 X40.7187 Y76.4535 F10000
G1 X40.8477 Y76.4740 F10000
G1 X40.9766 Y76.4928 F10000
G1 X41.1064 Y76.5107 F10000
G1 X41.2362 Y76.5269 F10000
G1 X41.3669 Y76.5423 F10000
G1 X41.4984 Y76.5568 F10000
G1 X41.6299 Y76.5696 F10000
G1 X41.7623 Y76.5807 F10000
G1 X41.8947 Y76.5910 F10000
G1 X42.0279 Y76.5995 F10000
G1 X42.1620 Y76.6072 F10000
G1 X42.2960 Y76.6132 F10000
G1 X42.4310 Y76.6183 F10000
G1 X42.5667 Y76.6217 F10000
G1 X42.7025 Y76.6243 F10000
G1 X42.8392 Y76.6251 F10000
G1 X42.9758 Y76.6243 F10000
G1 X43.1133 Y76.6226 F10000
G1 X43.2516 Y76.6191 F10000
G1 X43.3900 Y76.6149 F10000
G1 X43.5292 Y76.6089 F10000
G1 X43.6684 Y76.6021 F10000
G1 X43.8084 Y76.5935 F10000
G1 X43.9493 Y76.5841 F10000
G1 X44.0902 Y76.5731 F10000
G1 X44.2320 Y76.5611 F10000
G1 X44.3737 Y76.5474 F10000
G1 X44.5164 Y76.5329 F10000
G1 X44.6598 Y76.5175 F10000
G1 X44.8033 Y76.4996 F10000
G1 X44.9476 Y76.4817 F10000
G1 X45.0920 Y76.4620 F10000
G1 X45.2371 Y76.4415 F10000
G1 X45.3823 Y76.4202 F10000
G1 X45.5283 Y76.3971 F10000
G1 X45.6752 Y76.3732 F10000
G1 X45.8221 Y76.3476 F10000
G1 X45.9690 Y76.3220 F10000
G1 X46.1167 Y76.2946 F10000
G1 X46.2645 Y76.2665 F10000
G1 X46.4130 Y76.2374 F10000
G1 X46.5616 Y76.2075 F10000
G1 X46.7111 Y76.1768 F10000
G1 X46.8605 Y76.1443 F10000
G1 X47.0100 Y76.1119 F10000
G1 X47.1603 Y76.0786 F10000
G1 X47.3106 Y76.0444 F10000
G1 X47.4617 Y76.0086 F10000
G1 X47.6129 Y75.9736 F10000
G1 X47.7640 Y75.9368 F10000
G1 X47.9160 Y75.8993 F10000
G1 X48.0680 Y75.8617 F10000
G1 X48.2201 Y75.8232 F10000
G1 X48.3729 Y75.7840 F10000
G1 X48.5249 Y75.7447 F10000
G1 X48.6778 Y75.7046 F10000
G1 X48.8307 Y75.6635 F10000
G1 X48.9844 Y75.6226 F10000
G1 X49.1372 Y75.5816 F10000
G1 X49.2909 Y75.5397 F10000
G1 X49.4447 Y75.4979 F10000
G1 X49.5984 Y75.4552 F10000
G1 X49.7521 Y75.4125 F10000
G1 X49.9058 Y75.3698 F10000
G1 X50.0595 Y75.3271 F10000
G1 X50.2141 Y75.2844 F10000
G1 X50.3678 Y75.2408 F10000
G1 X50.5215 Y75.1981 F10000
G1 X50.6761 Y75.1546 F10000
G1 X50.8298 Y75.1119 F10000
G1 X50.9835 Y75.0683 F10000
G1 X51.1372 Y75.0256 F10000
G1 X51.2918 Y74.9829 F10000
G1 X51.4455 Y74.9402 F10000
G1 X51.5993 Y74.8984 F10000
G1 X51.7521 Y74.8565 F10000
G1 X51.9058 Y74.8147 F10000
G1 X52.0596 Y74.7737 F10000
G1 X52.2124 Y74.7327 F10000
G1 X52.3653 Y74.6917 F10000
G1 X52.5181 Y74.6516 F10000
G1 X52.6710 Y74.6123 F10000
G1 X52.8230 Y74.5730 F10000
G1 X52.9750 Y74.5346 F10000
G1 X53.1270 Y74.4970 F10000
G1 X53.2790 Y74.4595 F10000
G1 X53.4302 Y74.4236 F10000
G1 X53.5813 Y74.3877 F10000
G1 X53.7325 Y74.3527 F10000
G1 X53.8828 Y74.3185 F10000
G1 X54.0331 Y74.2852 F10000
G1 X54.1825 Y74.2519 F10000
G1 X54.3320 Y74.2203 F10000
G1 X54.4814 Y74.1896 F10000
G1 X54.6300 Y74.1597 F10000
G1 X54.7777 Y74.1315 F10000
G1 X54.9263 Y74.1034 F10000
G1 X55.0732 Y74.0760 F10000
G1 X55.2210 Y74.0504 F10000
G1 X55.3670 Y74.0256 F10000
G1 X55.5139 Y74.0017 F10000
G1 X55.6591 Y73.9795 F10000
G1 X55.8051 Y73.9582 F10000
G1 X55.9494 Y73.9377 F10000
G1 X56.0937 Y73.9189 F10000
G1 X56.2381 Y73.9009 F10000
G1 X56.3815 Y73.8839 F10000
G1 X56.5241 Y73.8685 F10000
G1 X56.6667 Y73.8540 F10000
G1 X56.8085 Y73.8412 F10000
G1 X56.9503 Y73.8292 F10000
G1 X57.0912 Y73.8190 F10000
G1 X57.2321 Y73.8096 F10000
G1 X57.3713 Y73.8019 F10000
G1 X57.5113 Y73.7951 F10000
G1 X57.6497 Y73.7899 F10000
G1 X57.7880 Y73.7857 F10000
G1 X57.9264 Y73.7831 F10000
G1 X58.0638 Y73.7823 F10000
G1 X58.2005 Y73.7814 F10000
G1 X58.3363 Y73.7831 F10000
G1 X58.4720 Y73.7857 F10000
G1 X58.6078 Y73.7891 F10000
G1 X58.7428 Y73.7942 F10000
G1 X58.8768 Y73.8010 F10000
G1 X59.0101 Y73.8087 F10000
G1 X59.1433 Y73.8173 F10000
G1 X59.2765 Y73.8275 F10000
G1 X59.4080 Y73.8395 F10000
G1 X59.5404 Y73.8514 F10000
G1 X59.6710 Y73.8659 F10000
G1 X59.8017 Y73.8804 F10000
G1 X59.9324 Y73.8967 F10000
G1 X60.0622 Y73.9146 F10000
G1 X60.1911 Y73.9325 F10000
G1 X60.3201 Y73.9522 F10000
G1 X60.4490 Y73.9735 F10000
G1 X60.5771 Y73.9949 F10000
G1 X60.7043 Y74.0179 F10000
G1 X60.8316 Y74.0419 F10000
G1 X60.9588 Y74.0666 F10000
G1 X61.0852 Y74.0931 F10000
G1 X61.2108 Y74.1196 F10000
G1 X61.3371 Y74.1469 F10000
G1 X61.4618 Y74.1759 F10000
G1 X61.5874 Y74.2050 F10000
G1 X61.7120 Y74.2348 F10000
G1 X61.8359 Y74.2664 F10000
G1 X61.9606 Y74.2981 F10000
G1 X62.0844 Y74.3305 F10000
G1 X62.2082 Y74.3630 F10000
G1 X62.3312 Y74.3971 F10000
G1 X62.4541 Y74.4313 F10000
G1 X62.5771 Y74.4654 F10000
G1 X62.7001 Y74.5004 F10000
G1 X62.8222 Y74.5363 F10000
G1 X62.9443 Y74.5722 F10000
G1 X63.0673 Y74.6089 F10000
G1 X63.1894 Y74.6456 F10000
G1 X63.3107 Y74.6823 F10000
G1 X63.4328 Y74.7199 F10000
G1 X63.5549 Y74.7566 F10000
G1 X63.6762 Y74.7942 F10000
G1 X63.7983 Y74.8318 F10000
G1 X63.9196 Y74.8693 F10000
G1 X64.0417 Y74.9078 F10000
G1 X64.1638 Y74.9454 F10000
G1 X64.2851 Y74.9821 F10000
G1 X64.4072 Y75.0197 F10000
G1 X64.5293 Y75.0572 F10000
G1 X64.6506 Y75.0940 F10000
G1 X64.7727 Y75.1307 F10000
G1 X64.8957 Y75.1666 F10000
G1 X65.0178 Y75.2033 F10000
G1 X65.1399 Y75.2383 F10000
G1 X65.2629 Y75.2733 F10000
G1 X65.3859 Y75.3083 F10000
G1 X65.5088 Y75.3424 F10000
G1 X65.6327 Y75.3758 F10000
G1 X65.7565 Y75.4082 F10000
G1 X65.8803 Y75.4407 F10000
G1 X66.0041 Y75.4723 F10000
G1 X66.1288 Y75.5030 F10000
G1 X66.2535 Y75.5329 F10000
G1 X66.3790 Y75.5619 F10000
G1 X66.5037 Y75.5901 F10000
G1 X66.6301 Y75.6174 F10000
G1 X66.7565 Y75.6439 F10000
G1 X66.8829 Y75.6695 F10000
G1 X67.0101 Y75.6934 F10000
G1 X67.1373 Y75.7174 F10000
G1 X67.2646 Y75.7396 F10000
G1 X67.3935 Y75.7609 F10000
G1 X67.5217 Y75.7805 F10000
G1 X67.6515 Y75.8002 F10000
G1 X67.7804 Y75.8181 F10000
G1 X67.9111 Y75.8344 F10000
G1 X68.0417 Y75.8497 F10000
G1 X68.1724 Y75.8642 F10000
G1 X68.3039 Y75.8770 F10000
G1 X68.4363 Y75.8890 F10000
G1 X68.5686 Y75.9001 F10000
G1 X68.7019 Y75.9095 F10000
G1 X68.8351 Y75.9172 F10000
G1 X68.9691 Y75.9240 F10000
G1 X69.1041 Y75.9291 F10000
G1 X69.2390 Y75.9334 F10000
G1 X69.3748 Y75.9360 F10000
G1 X69.5106 Y75.9377 F10000
G1 X69.6472 Y75.9385 F10000
G1 X69.7847 Y75.9368 F10000
G1 X69.9222 Y75.9351 F10000
G1 X70.0605 Y75.9309 F10000
G1 X70.1989 Y75.9266 F10000
G1 X70.3381 Y75.9206 F10000
G1 X70.4781 Y75.9129 F10000
G1 X70.6182 Y75.9044 F10000
G1 X70.7591 Y75.8941 F10000
G1 X70.9000 Y75.8830 F10000
G1 X71.0417 Y75.8711 F10000
G1 X71.1844 Y75.8574 F10000
G1 X71.3270 Y75.8438 F10000
G1 X71.4696 Y75.8275 F10000
G1 X71.6130 Y75.8113 F10000
G1 X71.7565 Y75.7934 F10000
G1 X71.9008 Y75.7746 F10000
G1 X72.0460 Y75.7549 F10000
G1 X72.1912 Y75.7344 F10000
G1 X72.3364 Y75.7131 F10000
G1 X72.4824 Y75.6900 F10000
G1 X72.6284 Y75.6670 F10000
G1 X72.7745 Y75.6431 F10000
G1 X72.9213 Y75.6183 F10000
G1 X73.0682 Y75.5927 F10000
G1 X73.2160 Y75.5662 F10000
G1 X73.3628 Y75.5389 F10000
G1 X73.5106 Y75.5115 F10000
G1 X73.6592 Y75.4834 F10000
G1 X73.8069 Y75.4552 F10000
G1 X73.9555 Y75.4262 F10000
G1 X74.1041 Y75.3963 F10000
G1 X74.2527 Y75.3672 F10000
G1 X74.4013 Y75.3365 F10000
G1 X74.5507 Y75.3066 F10000
G1 X74.6993 Y75.2759 F10000
G1 X74.8488 Y75.2451 F10000
G1 X74.9974 Y75.2144 F10000
G1 X75.1468 Y75.1836 F10000
G1 X75.2954 Y75.1529 F10000
G1 X75.4448 Y75.1213 F10000
G1 X75.5943 Y75.0905 F10000
G1 X75.7429 Y75.0598 F10000
G1 X75.8923 Y75.0299 F10000
G1 X76.0409 Y74.9992 F10000
G1 X76.1895 Y74.9693 F10000
G1 X76.3381 Y74.9394 F10000
G1 X76.4867 Y74.9104 F10000
G1 X76.6353 Y74.8813 F10000
G1 X76.7830 Y74.8531 F10000
G1 X76.9316 Y74.8249 F10000
G1 X77.0794 Y74.7976 F10000
G1 X77.2262 Y74.7712 F10000
G1 X77.3740 Y74.7447 F10000
G1 X77.5209 Y74.7191 F10000
G1 X77.6677 Y74.6943 F10000
G1 X77.8138 Y74.6704 F10000
G1 X77.9598 Y74.6465 F10000
G1 X78.1058 Y74.6243 F10000
G1 X78.2510 Y74.6021 F10000
G1 X78.3962 Y74.5816 F10000
G1 X78.5414 Y74.5611 F10000
G1 X78.6857 Y74.5423 F10000
G1 X78.8300 Y74.5244 F10000
G1 X78.9735 Y74.5073 F10000
G1 X79.1169 Y74.4910 F10000
G1 X79.2596 Y74.4757 F10000
G1 X79.4022 Y74.4611 F10000
G1 X79.5439 Y74.4483 F10000
G1 X79.6857 Y74.4355 F10000
G1 X79.8266 Y74.4244 F10000
G1 X79.9675 Y74.4150 F10000
G1 X80.1084 Y74.4056 F10000
G1 X80.2476 Y74.3980 F10000
G1 X80.3877 Y74.3911 F10000
G1 X80.5269 Y74.3852 F10000
G1 X80.6652 Y74.3809 F10000
G1 X80.8036 Y74.3775 F10000
G1 X80.9410 Y74.3749 F10000
G1 X81.0785 Y74.3732 F10000
G1 X81.2152 Y74.3724 F10000
G1 X81.3518 Y74.3732 F10000
G1 X81.4884 Y74.3749 F10000
G1 X81.6234 Y74.3775 F10000
G1 X81.7592 Y74.3817 F10000
G1 X81.8941 Y74.3860 F10000
G1 X82.0282 Y74.3920 F10000
G1 X82.1622 Y74.3988 F10000
G1 X82.2963 Y74.4065 F10000
G1 X82.4295 Y74.4150 F10000
G1 X82.5627 Y74.4244 F10000
G1 X82.6951 Y74.4347 F10000
G1 X82.8275 Y74.4458 F10000
G1 X82.9598 Y74.4577 F10000
G1 X83.0914 Y74.4705 F10000
G1 X83.2229 Y74.4842 F10000
G1 X83.3535 Y74.4979 F10000
G1 X83.4842 Y74.5132 F10000
G1 X83.6148 Y74.5286 F10000
G1 X83.7455 Y74.5448 F10000
G1 X83.8753 Y74.5619 F10000
G1 X84.0051 Y74.5790 F10000
G1 X84.1349 Y74.5969 F10000
G1 X84.2639 Y74.6157 F10000
G1 X84.3937 Y74.6345 F10000
G1 X84.5226 Y74.6533 F10000
G1 X84.6516 Y74.6729 F10000
G1 X84.7797 Y74.6934 F10000
G1 X84.9086 Y74.7139 F10000
G1 X85.0376 Y74.7344 F10000
G1 X85.1657 Y74.7549 F10000
G1 X85.2937 Y74.7763 F10000
G1 X85.4219 Y74.7976 F10000
G1 X85.5508 Y74.8190 F10000
G1 X85.6789 Y74.8403 F10000
G1 X85.8070 Y74.8617 F10000
G1 X85.9351 Y74.8839 F10000
G1 X86.0632 Y74.9052 F10000
G1 X86.1913 Y74.9266 F10000
G1 X86.3194 Y74.9479 F10000
G1 X86.4475 Y74.9693 F10000
G1 X86.5756 Y74.9906 F10000
G1 X86.7045 Y75.0111 F10000
G1 X86.8326 Y75.0325 F10000
G1 X86.9616 Y75.0530 F10000
G1 X87.0905 Y75.0726 F10000
G1 X87.2186 Y75.0931 F10000
G1 X87.3476 Y75.1127 F10000
G1 X87.4774 Y75.1315 F10000
G1 X87.6063 Y75.1503 F10000
G1 X87.7353 Y75.1691 F10000
G1 X87.8651 Y75.1870 F10000
G1 X87.9949 Y75.2041 F10000
G1 X88.1247 Y75.2212 F10000
G1 X88.2553 Y75.2374 F10000
G1 X88.3860 Y75.2537 F10000
G1 X88.5167 Y75.2690 F10000
G1 X88.6473 Y75.2835 F10000
G1 X88.7780 Y75.2981 F10000
G1 X88.9095 Y75.3117 F10000
G1 X89.0410 Y75.3245 F10000
G1 X89.1725 Y75.3365 F10000
G1 X89.3049 Y75.3484 F10000
G1 X89.4373 Y75.3595 F10000
G1 X89.5696 Y75.3698 F10000
G1 X89.7028 Y75.3800 F10000
G1 X89.8361 Y75.3886 F10000
G1 X89.9693 Y75.3971 F10000
G1 X90.1033 Y75.4048 F10000
G1 X90.2374 Y75.4116 F10000
G1 X90.3715 Y75.4176 F10000
G1 X90.5064 Y75.4236 F10000
G1 X90.6405 Y75.4279 F10000
G1 X90.7763 Y75.4321 F10000
G1 X90.9112 Y75.4356 F10000
G1 X91.0470 Y75.4390 F10000
G1 X91.1828 Y75.4407 F10000
G1 X91.3194 Y75.4424 F10000
G1 X91.4561 Y75.4424 F10000
G1 X91.5927 Y75.4424 F10000
G1 X91.7293 Y75.4424 F10000
G1 X91.8668 Y75.4407 F10000
G1 X92.0043 Y75.4390 F10000
G1 X92.1418 Y75.4364 F10000
G1 X92.2801 Y75.4330 F10000
G1 X92.4185 Y75.4296 F10000
G1 X92.5568 Y75.4244 F10000
G1 X92.6960 Y75.4202 F10000
G1 X92.8344 Y75.4142 F10000
G1 X92.9736 Y75.4082 F10000
G1 X93.1136 Y75.4014 F10000
G1 X93.2528 Y75.3945 F10000
G1 X93.3929 Y75.3869 F10000
G1 X93.5329 Y75.3792 F10000
G1 X93.6730 Y75.3707 F10000
G1 X93.8130 Y75.3613 F10000
G1 X93.9539 Y75.3518 F10000
G1 X94.0948 Y75.3424 F10000
G1 X94.2357 Y75.3322 F10000
G1 X94.3767 Y75.3211 F10000
G1 X94.5176 Y75.3109 F10000
G1 X94.6585 Y75.2998 F10000
G1 X94.8002 Y75.2878 F10000
G1 X94.9420 Y75.2767 F10000
G1 X95.0829 Y75.2647 F10000
G1 X95.2247 Y75.2519 F10000
G1 X95.3664 Y75.2400 F10000
G1 X95.5082 Y75.2272 F10000
G1 X95.6499 Y75.2144 F10000
G1 X95.7917 Y75.2016 F10000
G1 X95.9343 Y75.1888 F10000
G1 X96.0761 Y75.1759 F10000
G1 X96.2178 Y75.1623 F10000
G1 X96.3604 Y75.1495 F10000
G1 X96.5022 Y75.1367 F10000
G1 X96.6440 Y75.1230 F10000
G1 X96.7866 Y75.1102 F10000
G1 X96.9283 Y75.0965 F10000
G1 X97.0701 Y75.0837 F10000
G1 X97.2119 Y75.0709 F10000
G1 X97.3545 Y75.0581 F10000
G1 X97.4962 Y75.0453 F10000
G1 X97.6380 Y75.0325 F10000
G1 X97.7797 Y75.0197 F10000
G1 X97.9215 Y75.0077 F10000
G1 X98.0633 Y74.9957 F10000
G1 X98.2042 Y74.9838 F10000
G1 X98.3459 Y74.9718 F10000
G1 X98.4877 Y74.9607 F10000
G1 X98.6286 Y74.9488 F10000
G1 X98.7695 Y74.9385 F10000
G1 X98.9104 Y74.9274 F10000
G1 X99.0513 Y74.9172 F10000
G1 X99.1922 Y74.9069 F10000
G1 X99.3331 Y74.8976 F10000
G1 X99.4740 Y74.8873 F10000
G1 X99.6141 Y74.8787 F10000
G1 X99.7541 Y74.8693 F10000
G1 X99.8951 Y74.8617 F10000
G1 X100.0351 Y74.8531 F10000
G1 X100.1743 Y74.8455 F10000
G1 X100.3143 Y74.8378 F10000
G1 X100.4535 Y74.8309 F10000
G1 X100.5936 Y74.8249 F10000
G1 X100.7328 Y74.8181 F10000
G1 X100.8720 Y74.8121 F10000
G1 X101.0104 Y74.8070 F10000
G1 X101.1495 Y74.8019 F10000
G1 X101.2879 Y74.7976 F10000
G1 X101.4262 Y74.7934 F10000
G1 X101.5646 Y74.7891 F10000
G1 X101.7029 Y74.7857 F10000
G1 X101.8404 Y74.7831 F10000
G1 X101.9788 Y74.7806 F10000
G1 X102.1162 Y74.7780 F10000
G1 X102.2537 Y74.7763 F10000
G1 X102.3912 Y74.7746 F10000
G1 X102.5287 Y74.7737 F10000
G1 X102.6653 Y74.7729 F10000
G1 X102.8020 Y74.7729 F10000
G1 X102.9395 Y74.7729 F10000
G1 X103.0761 Y74.7729 F10000
